X: 8845
T: Cuillin Nights
R: reel
M: 4/4
K: Bminor
DE|F~B3 A3F|EFDE EDB,A,|B,~E3 EF/E/DE|FABd BAFE|
F~B3 A3F|EFDE EDB,A,|B,D2F EDB,A,|B,DDE DEFG|
ABdA B2AF|DEED EDB,A,|B,~E3 EF/E/DE|FABd BAFE|
F~B3 A3F|EFDE EDB,A,|B,D2F EDB,A,|B,DDE DEFA||
efed BABd|E3E EFGB|g3f edef|fedf edBA|
efed BABd|E3E EFGB|gfed fedf|edBd AFED|
efed BABd|E3E EFGB|g3f edef|fedf edBA|
efed BABd|E3E EFGB|gfed fedf|edBd AFED||

